hero/solid/arrow-up-right.svg

<svg width="24" height="24" viewBox="0 0 24 24" fill="none" xmlns="http://www.w3.org/2000/svg">
<path fill-rule="evenodd" clip-rule="evenodd" d="M8.25 3.75L19.5 3.75C19.6989 3.75 19.8897 3.82902 20.0303 3.96967C20.171 4.11032 20.25 4.30109 20.25 4.5V15.75C20.25 16.1642 19.9142 16.5 19.5 16.5C19.0858 16.5 18.75 16.1642 18.75 15.75V6.31066L5.03033 20.0303C4.73744 20.3232 4.26256 20.3232 3.96967 20.0303C3.67678 19.7374 3.67678 19.2626 3.96967 18.9697L17.6893 5.25L8.25 5.25C7.83579 5.25 7.5 4.91421 7.5 4.5C7.5 4.08579 7.83579 3.75 8.25 3.75Z" fill="#0F172A"/>
</svg>

<svg viewBox="0 0 24 24" xmlns="http://www.w3.org/2000/svg"><path fill-rule="evenodd" d="M8.25 3.75H19.5v0c.41 0 .75.33.75.75v11.25 0c0 .41-.34.75-.75.75 -.42 0-.75-.34-.75-.75V6.31L5.03 20.03H5.02c-.31.28-.78.26-1.06-.04 -.27-.29-.27-.74-.001-1.03l13.72-13.72h-9.44v0c-.42 0-.75-.34-.75-.75 0-.42.33-.75.75-.75Z"/></svg>
